X: 49
T: Mama dada haile xin
%%abc-version 2.0
%%abcx-abcm2ps-target-version 5.9.1 (29 Sep 2008)
%%abc-creator hum2abc beta
%%abcx-conversion-date 2013/10/02 07:52:29
%%abc-edited-by Helmut Schaffrath
%%humdrum-veritas 3092085778
%%humdrum-veritas-data 675254139
%%continueall 1
%%barnumbers 0
L: 1/8
M: 2/4
K: F
ga2a/ g/ [I:setbarnb 1]| 
dc'2a/ a/ | 
g d f f/ c/ | 
f4 | 
ga2a/ g/ | 
dc'2a/ a/ | 
g df2 | 
d Ac2 |]  



